icons/knex.svg

<svg width="16" height="16" viewBox="0 0 16 16" fill="none" xmlns="http://www.w3.org/2000/svg">
<path d="M14.9221 8.76716L13.1989 7.9347L14.8313 7.17121C14.9579 7.11182 15.0323 6.95519 14.9447 6.80918L14.7751 6.61279C14.6656 6.49308 14.5467 6.40575 14.4023 6.46257L13.1894 6.91976C13.1629 6.92971 13.1339 6.93097 13.1066 6.92326L12.6372 6.79026C12.6023 6.78041 12.5649 6.78965 12.5387 6.81454L12.0365 7.29125C11.9239 6.64599 11.6616 6.05219 11.285 5.5483L12.0192 5.54256C12.0508 5.54229 12.0798 5.525 12.0951 5.49728L12.355 5.02593C12.3685 5.00137 12.3899 4.98207 12.4156 4.97113L13.617 4.45887C13.6908 4.42742 13.7362 4.27414 13.722 4.17471L13.6829 3.81596C13.651 3.71293 13.5063 3.62226 13.4371 3.6478L11.63 4.27769L12.2444 2.58347C12.292 2.45195 12.2338 2.2887 12.0686 2.2473L11.8098 2.22844C11.6477 2.22122 11.5019 2.24348 11.4399 2.38583L10.9056 3.5667C10.8939 3.59245 10.8743 3.61384 10.8496 3.62767L10.4236 3.86562C10.392 3.88328 10.3721 3.91626 10.3711 3.95241L10.353 4.64486C9.83907 4.28371 9.23882 4.0375 8.58886 3.94393L9.10429 3.42035C9.12649 3.39777 9.1348 3.36501 9.126 3.33466L8.97643 2.81759C8.96866 2.79068 8.97008 2.76191 8.98053 2.73594L9.46785 1.52422C9.49782 1.44985 9.42153 1.3093 9.34114 1.24904L9.05988 1.02301C8.9644 0.97281 8.79798 1.01093 8.76714 1.07786L7.93468 2.80118L7.17119 1.1687C7.1118 1.04204 6.95523 0.967779 6.80916 1.05528L6.61278 1.22497C6.49307 1.33446 6.40573 1.4533 6.46261 1.59778L6.91974 2.81059C6.92975 2.83711 6.93095 2.86609 6.92324 2.89333L6.79029 3.36288C6.78039 3.39766 6.78964 3.43506 6.81457 3.46131L7.29123 3.96351C6.64597 4.07611 6.05218 4.33834 5.54834 4.71497L5.54254 3.98085C5.54232 3.94918 5.52499 3.9202 5.49732 3.90488L5.02591 3.64501C5.00141 3.6315 4.9821 3.61017 4.97111 3.58442L4.45891 2.38298C4.42746 2.30921 4.27417 2.26382 4.1747 2.27804L3.81595 2.31709C3.71297 2.34908 3.62224 2.49373 3.64778 2.56285L4.27773 4.37006L2.58351 3.75559C2.45193 3.70801 2.28869 3.76625 2.24729 3.93141L2.22842 4.19024C2.2212 4.35228 2.24346 4.49814 2.38581 4.56004L3.56668 5.09439C3.59249 5.1061 3.61388 5.12573 3.62766 5.15045L3.86566 5.57647C3.88327 5.60802 3.9163 5.62798 3.95245 5.62891L4.64485 5.64696C4.28374 6.16091 4.03749 6.76116 3.94397 7.41112L3.42034 6.89569C3.39781 6.87349 3.36505 6.86523 3.33464 6.87398L2.81757 7.02355C2.79067 7.03137 2.76195 7.0299 2.73598 7.01945L1.52427 6.53213C1.44984 6.50222 1.30934 6.57851 1.24908 6.65884L1.023 6.94015C0.972797 7.03558 1.01097 7.202 1.07791 7.23284L2.80117 8.0653L1.16869 8.82879C1.04203 8.88818 0.967766 9.04481 1.05527 9.19082L1.22496 9.3872C1.33445 9.50692 1.45334 9.59425 1.59777 9.53743L2.81063 9.08024C2.8371 9.07029 2.86608 9.06903 2.89337 9.07674L3.36286 9.20974C3.39764 9.21959 3.4351 9.21035 3.46135 9.18546L3.96355 8.70875C4.0761 9.35401 4.33838 9.94781 4.71501 10.4517L3.98083 10.4574C3.94922 10.4577 3.92018 10.475 3.90492 10.5027L3.64505 10.9741C3.63149 10.9986 3.61016 11.0179 3.5844 11.0289L2.38302 11.5411C2.30925 11.5726 2.26381 11.7259 2.27802 11.8253L2.31707 12.184C2.34906 12.2871 2.49371 12.3777 2.56289 12.3522L4.37004 11.7223L3.75557 13.4165C3.70805 13.5481 3.76624 13.7113 3.93139 13.7527L4.19023 13.7716C4.35227 13.7788 4.49812 13.7565 4.56003 13.6142L5.09438 12.4333C5.10608 12.4075 5.12571 12.3862 5.15043 12.3723L5.57645 12.1344C5.608 12.1167 5.62796 12.0837 5.62889 12.0476L5.647 11.3551C6.16095 11.7163 6.76114 11.9625 7.41116 12.0561L6.89568 12.5796C6.87353 12.6022 6.86522 12.635 6.87402 12.6653L7.02359 13.1824C7.03136 13.2093 7.02988 13.2381 7.01943 13.2641L6.53211 14.4758C6.5022 14.5502 6.57849 14.6907 6.65888 14.751L6.94014 14.977C7.03557 15.0272 7.20198 14.9891 7.23288 14.9221L8.06528 13.1988L8.82883 14.8313C8.88822 14.958 9.04479 15.0322 9.19086 14.9447L9.38719 14.775C9.5069 14.6655 9.59429 14.5467 9.53741 14.4022L9.08028 13.1894C9.07027 13.1629 9.06907 13.1339 9.07678 13.1067L9.20972 12.6371C9.21957 12.6023 9.21033 12.5649 9.18544 12.5387L8.70879 12.0364C9.35399 11.9239 9.94784 11.6617 10.4517 11.285L10.4575 12.0192C10.4577 12.0508 10.475 12.0799 10.5027 12.0951L10.9741 12.355C10.9986 12.3685 11.0179 12.3898 11.0289 12.4156L11.5411 13.617C11.5726 13.6908 11.7258 13.7362 11.8253 13.722L12.184 13.6829C12.287 13.6509 12.3777 13.5063 12.3522 13.4371L11.7223 11.6299L13.4165 12.2444C13.5481 12.292 13.7113 12.2337 13.7527 12.0686L13.7716 11.8098C13.7788 11.6477 13.7565 11.5019 13.6142 11.44L12.4333 10.9056C12.4075 10.8939 12.3861 10.8743 12.3723 10.8496L12.1344 10.4235C12.1167 10.392 12.0837 10.372 12.0476 10.3711L11.3551 10.353C11.7163 9.83909 11.9625 9.23884 12.056 8.58888L12.5797 9.10431C12.6022 9.12651 12.635 9.13477 12.6653 9.12602L13.1824 8.97645C13.2093 8.96863 13.2381 8.9701 13.264 8.98055L14.4758 9.46787C14.5502 9.49778 14.6907 9.42149 14.7509 9.34116L14.977 9.05984C15.0272 8.96441 14.989 8.798 14.9221 8.76716ZM10.9386 7.54292H10.0672C10.0038 7.25488 9.88183 6.98899 9.71427 6.7581L10.3251 6.14729C10.6407 6.54279 10.858 7.02016 10.9386 7.54292ZM9.1383 6.21527C8.89872 6.06209 8.62648 5.95561 8.33401 5.90924V5.04556C8.86147 5.10451 9.34704 5.30133 9.75419 5.59938L9.1383 6.21527ZM9.03221 8C9.03221 8.57006 8.5701 9.03223 7.99998 9.03223C7.42992 9.03223 6.96775 8.57006 6.96775 8C6.96775 7.42994 7.42992 6.96777 7.99998 6.96777C8.5701 6.96777 9.03221 7.42994 9.03221 8ZM7.5429 5.06136V5.93281C7.25486 5.99625 6.98897 6.1182 6.75814 6.28571L6.14728 5.6749C6.54283 5.3593 7.02015 5.14203 7.5429 5.06136ZM6.21525 6.86168C6.06213 7.10132 5.9556 7.37355 5.90928 7.66597H5.04554C5.10455 7.13851 5.30137 6.65294 5.59936 6.24579L6.21525 6.86168ZM5.0614 8.45708H5.93285C5.99623 8.74512 6.11818 9.01101 6.28575 9.2419L5.67489 9.85271C5.35934 9.4572 5.14207 8.97984 5.0614 8.45708ZM6.86166 9.78473C7.1013 9.93791 7.37354 10.0444 7.66595 10.0908V10.9544C7.13854 10.8955 6.65292 10.6987 6.24582 10.4006L6.86166 9.78473ZM8.45712 10.9386V10.0672C8.7451 10.0038 9.01104 9.8818 9.24188 9.71429L9.85269 10.3251C9.45719 10.6407 8.97982 10.858 8.45712 10.9386ZM9.78476 9.13832C9.93789 8.89868 10.0444 8.62645 10.0907 8.33403H10.9545C10.8955 8.86149 10.6986 9.34706 10.4007 9.75421L9.78476 9.13832Z" fill="#F57637"/>
</svg>

<svg xmlns="http://www.w3.org/2000/svg" width="16" height="16" fill="none"><path fill="#F57637" d="M14.922 8.767 13.2 7.935l1.632-.764c.127-.06.201-.216.114-.362l-.17-.196c-.11-.12-.228-.207-.373-.15l-1.213.457a.133.133 0 0 1-.082.003l-.47-.133a.103.103 0 0 0-.098.025l-.502.476a4.08 4.08 0 0 0-.752-1.743l.734-.005c.032 0 .06-.018.076-.046l.26-.471a.125.125 0 0 1 .06-.055l1.202-.512c.074-.032.12-.185.105-.284l-.04-.359c-.031-.103-.176-.194-.245-.168l-1.807.63.614-1.695c.048-.131-.01-.294-.175-.336l-.26-.019c-.161-.007-.307.015-.37.158l-.533 1.18a.133.133 0 0 1-.056.062l-.426.238a.103.103 0 0 0-.053.086l-.018.693a4.074 4.074 0 0 0-1.764-.701l.515-.524a.087.087 0 0 0 .022-.085l-.15-.517a.126.126 0 0 1 .005-.082l.487-1.212c.03-.074-.046-.215-.127-.275l-.281-.226c-.096-.05-.262-.012-.293.055L7.935 2.8 7.17 1.17c-.06-.127-.216-.201-.362-.114l-.196.17c-.12.11-.207.228-.15.373L6.92 2.81c.01.026.011.055.003.082l-.133.47c-.01.035 0 .072.025.098l.476.503a4.079 4.079 0 0 0-1.743.751l-.005-.734a.088.088 0 0 0-.046-.076l-.471-.26a.125.125 0 0 1-.055-.06L4.46 2.382c-.032-.074-.185-.12-.284-.105l-.359.04c-.103.031-.194.176-.168.245l.63 1.807-1.694-.614c-.132-.048-.295.01-.337.175l-.019.26c-.007.161.015.307.158.369l1.18.534a.132.132 0 0 1 .062.056l.238.426c.017.032.05.052.086.053l.693.018a4.074 4.074 0 0 0-.701 1.764l-.524-.515a.088.088 0 0 0-.085-.022l-.517.15a.125.125 0 0 1-.082-.005l-1.212-.487c-.074-.03-.215.047-.275.127l-.226.281c-.05.096-.012.262.055.293l1.723.832-1.632.764c-.127.06-.201.216-.114.362l.17.196c.11.12.228.207.373.15L2.81 9.08a.133.133 0 0 1 .082-.003l.47.133c.035.01.072 0 .098-.025l.503-.476c.112.645.374 1.239.751 1.743l-.734.005a.088.088 0 0 0-.076.046l-.26.471a.126.126 0 0 1-.06.055l-1.202.512c-.074.032-.12.185-.105.284l.04.359c.031.103.176.194.245.168l1.807-.63-.614 1.694c-.048.132.01.295.175.337l.26.019c.161.007.307-.015.369-.158l.534-1.18a.133.133 0 0 1 .056-.062l.426-.238a.103.103 0 0 0 .053-.086l.018-.693a4.074 4.074 0 0 0 1.764.701l-.515.524a.088.088 0 0 0-.022.085l.15.517a.126.126 0 0 1-.005.082l-.487 1.212c-.03.074.046.215.127.275l.281.226c.096.05.262.012.293-.055l.832-1.723.764 1.632c.06.127.216.201.362.114l.196-.17c.12-.11.207-.228.15-.373L9.08 13.19a.132.132 0 0 1-.003-.082l.133-.47a.102.102 0 0 0-.025-.098l-.476-.503a4.077 4.077 0 0 0 1.743-.751l.005.734c0 .032.018.06.046.076l.471.26a.125.125 0 0 1 .055.06l.512 1.202c.032.074.185.12.284.105l.359-.04c.103-.031.194-.176.168-.245l-.63-1.807 1.694.614c.132.048.295-.01.337-.175l.019-.26c.007-.161-.015-.307-.158-.369l-1.18-.534a.133.133 0 0 1-.062-.056l-.238-.426a.103.103 0 0 0-.086-.053l-.693-.018a4.073 4.073 0 0 0 .701-1.764l.524.515c.022.023.055.03.085.022l.517-.15a.125.125 0 0 1 .082.005l1.212.487c.074.03.215-.047.275-.127l.226-.281c.05-.096.012-.262-.055-.293ZM10.94 7.543h-.872a2.106 2.106 0 0 0-.353-.785l.611-.61c.316.395.533.872.614 1.395Zm-1.8-1.328a2.103 2.103 0 0 0-.805-.306v-.863a2.956 2.956 0 0 1 1.42.553l-.616.616ZM9.031 8a1.032 1.032 0 1 1-2.064 0 1.032 1.032 0 0 1 2.064 0Zm-1.49-2.939v.872a2.107 2.107 0 0 0-.784.353l-.61-.611a2.96 2.96 0 0 1 1.395-.614Zm-1.327 1.8c-.153.24-.26.513-.306.805h-.863a2.957 2.957 0 0 1 .553-1.42l.616.616ZM5.061 8.458h.872c.063.288.185.554.353.785l-.611.61a2.96 2.96 0 0 1-.614-1.395Zm1.8 1.328c.24.153.513.26.805.306v.863a2.955 2.955 0 0 1-1.42-.553l.616-.616Zm1.596 1.154v-.872c.288-.063.554-.185.785-.353l.61.611a2.958 2.958 0 0 1-1.395.614Zm1.328-1.8c.153-.24.26-.513.306-.805h.864a2.958 2.958 0 0 1-.554 1.42l-.616-.616Z"/></svg>
